svg/24/logo-microsoft-sharepoint.svg

<svg width="24" height="24" viewBox="0 0 24 24" fill="currentColor" xmlns="http://www.w3.org/2000/svg"><path d="M22 13.25C22 13.9401 21.8698 14.5879 21.6094 15.1934C21.349 15.7988 20.9909 16.3262 20.5352 16.7754C20.0794 17.2246 19.5488 17.5827 18.9434 17.8496C18.3379 18.1165 17.6901 18.25 17 18.25C16.5768 18.25 16.1536 18.1947 15.7305 18.084C15.6719 18.6374 15.5189 19.1517 15.2715 19.627C15.0241 20.1022 14.7018 20.5189 14.3047 20.877C13.9076 21.235 13.4616 21.5085 12.9668 21.6973C12.472 21.8861 11.9414 21.987 11.375 22C10.7695 22 10.2031 21.8861 9.67578 21.6582C9.14844 21.4303 8.6862 21.1178 8.28906 20.7207C7.89193 20.3236 7.57943 19.8613 7.35156 19.334C7.1237 18.8066 7.00651 18.237 7 17.625C7 17.5208 7.00326 17.4167 7.00977 17.3125C7.01628 17.2083 7.0293 17.1042 7.04883 17H2.83008C2.60221 17 2.4069 16.9186 2.24414 16.7559C2.08138 16.5931 2 16.3978 2 16.1699V7.83008C2 7.60221 2.08138 7.4069 2.24414 7.24414C2.4069 7.08138 2.60221 7 2.83008 7H5.7793C5.85742 6.29036 6.05924 5.63281 6.38477 5.02734C6.71029 4.42188 7.1237 3.89128 7.625 3.43555C8.1263 2.97982 8.69596 2.62826 9.33398 2.38086C9.97201 2.13346 10.6523 2.00651 11.375 2C12.1497 2 12.8789 2.14648 13.5625 2.43945C14.2461 2.73242 14.8418 3.13607 15.3496 3.65039C15.8574 4.16471 16.2578 4.76042 16.5508 5.4375C16.8438 6.11458 16.9935 6.84375 17 7.625C17 7.72917 16.9967 7.83333 16.9902 7.9375C16.9837 8.04167 16.974 8.14583 16.9609 8.25C17.651 8.25 18.3021 8.38021 18.9141 8.64062C19.526 8.90104 20.0599 9.25586 20.5156 9.70508C20.9714 10.1543 21.3327 10.6816 21.5996 11.2871C21.8665 11.8926 22 12.5469 22 13.25ZM11.375 3.25C10.8346 3.25 10.3203 3.3444 9.83203 3.5332C9.34375 3.72201 8.9043 3.98242 8.51367 4.31445C8.12305 4.64648 7.80404 5.04362 7.55664 5.50586C7.30924 5.9681 7.13997 6.46615 7.04883 7H11.1699C11.3978 7 11.5931 7.08138 11.7559 7.24414C11.9186 7.4069 12 7.60221 12 7.83008V11.9512L12.1758 11.9219C12.293 11.5052 12.4622 11.1113 12.6836 10.7402C12.9049 10.3691 13.1654 10.0306 13.4648 9.72461C13.7643 9.41862 14.1029 9.15495 14.4805 8.93359C14.8581 8.71224 15.2552 8.54297 15.6719 8.42578C15.724 8.14583 15.75 7.87891 15.75 7.625C15.75 7.01953 15.6361 6.45312 15.4082 5.92578C15.1803 5.39844 14.8678 4.9362 14.4707 4.53906C14.0736 4.14193 13.6113 3.82943 13.084 3.60156C12.5566 3.3737 11.987 3.25651 11.375 3.25ZM7.09766 15.252C7.39714 15.252 7.6901 15.2227 7.97656 15.1641C8.26302 15.1055 8.52344 15.0013 8.75781 14.8516C8.99219 14.7018 9.17448 14.513 9.30469 14.2852C9.4349 14.0573 9.50651 13.7643 9.51953 13.4062C9.51953 13.0547 9.44792 12.7617 9.30469 12.5273C9.16146 12.293 8.97591 12.0977 8.74805 11.9414C8.52018 11.7852 8.28255 11.6582 8.03516 11.5605C7.78776 11.4629 7.55013 11.3685 7.32227 11.2773C7.0944 11.1862 6.91211 11.0918 6.77539 10.9941C6.63867 10.8965 6.5638 10.7728 6.55078 10.623C6.55078 10.5124 6.58984 10.4245 6.66797 10.3594C6.74609 10.2943 6.83724 10.2389 6.94141 10.1934C7.04557 10.1478 7.15951 10.1217 7.2832 10.1152C7.4069 10.1087 7.50456 10.1022 7.57617 10.0957C7.9082 10.0957 8.20117 10.138 8.45508 10.2227C8.70898 10.3073 8.97266 10.4342 9.24609 10.6035V9.11914C9.08984 9.07357 8.94661 9.03451 8.81641 9.00195C8.6862 8.9694 8.55273 8.94336 8.41602 8.92383C8.2793 8.9043 8.14583 8.88802 8.01562 8.875C7.88542 8.86198 7.72917 8.85547 7.54688 8.85547C7.26042 8.85547 6.96745 8.88802 6.66797 8.95312C6.36849 9.01823 6.09831 9.1224 5.85742 9.26562C5.61654 9.40885 5.41797 9.59766 5.26172 9.83203C5.10547 10.0664 5.02734 10.3529 5.02734 10.6914C5.02734 11.0234 5.09896 11.3001 5.24219 11.5215C5.38542 11.7428 5.57096 11.9316 5.79883 12.0879C6.02669 12.2441 6.26432 12.3743 6.51172 12.4785C6.75911 12.5827 6.99674 12.6836 7.22461 12.7812C7.45247 12.8789 7.63477 12.9798 7.77148 13.084C7.9082 13.1882 7.98307 13.3151 7.99609 13.4648C7.99609 13.5885 7.96354 13.6862 7.89844 13.7578C7.83333 13.8294 7.74544 13.8848 7.63477 13.9238C7.52409 13.9629 7.41667 13.9857 7.3125 13.9922C7.20833 13.9987 7.10417 14.0052 7 14.0117C6.60938 14.0117 6.26432 13.9466 5.96484 13.8164C5.66536 13.6862 5.35612 13.5137 5.03711 13.2988V14.8613C5.70117 15.1217 6.38802 15.252 7.09766 15.252ZM11.375 20.75C11.8047 20.75 12.2083 20.6686 12.5859 20.5059C12.9635 20.3431 13.2923 20.1217 13.5723 19.8418C13.8522 19.5618 14.0768 19.2298 14.2461 18.8457C14.4154 18.4616 14.5 18.0547 14.5 17.625C14.5 17.2539 14.4382 16.8991 14.3145 16.5605C14.1908 16.222 14.0182 15.9193 13.7969 15.6523C13.5755 15.3854 13.3118 15.1543 13.0059 14.959C12.6999 14.7637 12.3646 14.6302 12 14.5586V16.1699C12 16.3978 11.9186 16.5931 11.7559 16.7559C11.5931 16.9186 11.3978 17 11.1699 17H8.30859C8.26953 17.2083 8.25 17.4167 8.25 17.625C8.25 18.0547 8.33138 18.4583 8.49414 18.8359C8.6569 19.2135 8.87826 19.5456 9.1582 19.832C9.43815 20.1185 9.77018 20.3431 10.1543 20.5059C10.5384 20.6686 10.9453 20.75 11.375 20.75ZM17 17C17.5143 17 17.9993 16.9023 18.4551 16.707C18.9108 16.5117 19.3079 16.2448 19.6465 15.9062C19.985 15.5677 20.2552 15.1706 20.457 14.7148C20.6589 14.2591 20.7565 13.7708 20.75 13.25C20.75 12.7357 20.6523 12.2507 20.457 11.7949C20.2617 11.3392 19.9948 10.9421 19.6562 10.6035C19.3177 10.265 18.9173 9.99479 18.4551 9.79297C17.9928 9.59115 17.5078 9.49349 17 9.5C16.4857 9.5 16.0039 9.59766 15.5547 9.79297C15.1055 9.98828 14.7083 10.2585 14.3633 10.6035C14.0182 10.9486 13.748 11.3457 13.5527 11.7949C13.3574 12.2441 13.2565 12.7292 13.25 13.25V13.4648C13.25 13.5365 13.2565 13.6081 13.2695 13.6797C13.5755 13.8294 13.8587 14.0085 14.1191 14.2168C14.3796 14.4251 14.6107 14.6628 14.8125 14.9297C15.0143 15.1966 15.1901 15.4831 15.3398 15.7891C15.4896 16.0951 15.597 16.4141 15.6621 16.7461C16.0983 16.9154 16.5443 17 17 17Z"/></svg>

<svg xmlns="http://www.w3.org/2000/svg" width="24" height="24" fill="currentColor" viewBox="0 0 24 24">
  <path d="M22 13.25c0 .69-.13 1.338-.39 1.943a4.935 4.935 0 0 1-1.075 1.582 5.28 5.28 0 0 1-1.592 1.075c-.605.266-1.253.4-1.943.4-.423 0-.846-.055-1.27-.166a4.288 4.288 0 0 1-.459 1.543c-.247.475-.57.892-.966 1.25a4.24 4.24 0 0 1-1.338.82 4.737 4.737 0 0 1-1.592.303 4.237 4.237 0 0 1-1.7-.342 4.423 4.423 0 0 1-2.323-2.324 4.382 4.382 0 0 1-.342-2.021c.006-.105.02-.209.039-.313H2.83a.8.8 0 0 1-.586-.244A.8.8 0 0 1 2 16.17V7.83a.8.8 0 0 1 .244-.586A.8.8 0 0 1 2.83 7h2.95c.077-.71.28-1.367.605-1.973a5.927 5.927 0 0 1 1.24-1.591A5.444 5.444 0 0 1 9.334 2.38 5.74 5.74 0 0 1 11.375 2a5.564 5.564 0 0 1 3.975 1.65c.507.515.908 1.11 1.2 1.788a5.567 5.567 0 0 1 .44 2.5 4.999 4.999 0 0 1-.03.312c.691 0 1.342.13 1.954.39a5.123 5.123 0 0 1 1.602 1.065c.455.45.817.977 1.084 1.582.266.606.4 1.26.4 1.963Zm-10.625-10a4.24 4.24 0 0 0-1.543.283c-.488.189-.928.45-1.318.781-.391.332-.71.73-.957 1.192-.248.462-.417.96-.508 1.494h4.12a.8.8 0 0 1 .587.244.8.8 0 0 1 .244.586v4.121l.176-.03a4.87 4.87 0 0 1 .508-1.18c.22-.372.481-.71.78-1.016.3-.306.639-.57 1.016-.791a5.05 5.05 0 0 1 1.192-.508 4.38 4.38 0 0 0 .078-.801c0-.605-.114-1.172-.342-1.7a4.423 4.423 0 0 0-2.324-2.323 4.382 4.382 0 0 0-1.709-.352ZM7.098 15.252c.3 0 .592-.03.879-.088a2.29 2.29 0 0 0 .78-.312 1.63 1.63 0 0 0 .548-.567c.13-.228.202-.52.215-.879 0-.351-.072-.644-.215-.879a1.913 1.913 0 0 0-.557-.586 3.593 3.593 0 0 0-.713-.38l-.713-.284a2.632 2.632 0 0 1-.547-.283.497.497 0 0 1-.224-.371c0-.11.039-.198.117-.264.078-.065.17-.12.273-.166a.972.972 0 0 1 .342-.078c.124-.006.222-.013.293-.02.332 0 .625.043.88.128.253.084.517.211.79.38V9.12a11.58 11.58 0 0 0-.43-.117 3.958 3.958 0 0 0-.4-.078 9.558 9.558 0 0 0-.4-.049 4.804 4.804 0 0 0-.47-.02 4.13 4.13 0 0 0-.878.098c-.3.065-.57.17-.81.313-.241.143-.44.332-.596.566-.157.234-.235.52-.235.86 0 .331.072.608.215.83.143.22.329.41.557.566.228.156.465.286.713.39l.713.303a2.6 2.6 0 0 1 .546.303.526.526 0 0 1 .225.38.42.42 0 0 1-.098.294.632.632 0 0 1-.263.166 1.19 1.19 0 0 1-.322.068l-.313.02c-.39 0-.736-.065-1.035-.196a5.84 5.84 0 0 1-.928-.517v1.562c.664.26 1.351.391 2.06.391Zm4.277 5.498c.43 0 .833-.081 1.21-.244a3.136 3.136 0 0 0 1.661-1.66c.17-.384.254-.791.254-1.221a3.078 3.078 0 0 0-.703-1.973 3.387 3.387 0 0 0-.791-.693 2.886 2.886 0 0 0-1.006-.4v1.61a.8.8 0 0 1-.244.587.8.8 0 0 1-.586.244H8.309c-.04.208-.059.417-.059.625 0 .43.081.833.244 1.21.163.378.384.71.664.997a3.097 3.097 0 0 0 2.217.918ZM17 17c.514 0 1-.098 1.455-.293a3.762 3.762 0 0 0 1.192-.8 3.9 3.9 0 0 0 .81-1.192c.202-.456.3-.944.293-1.465 0-.514-.098-1-.293-1.455a3.762 3.762 0 0 0-2.002-2.002A3.484 3.484 0 0 0 17 9.5a3.59 3.59 0 0 0-1.445.293 3.83 3.83 0 0 0-1.192.81 3.829 3.829 0 0 0-.81 1.192c-.196.45-.296.934-.303 1.455v.215c0 .072.007.143.02.215.306.15.589.329.85.537.26.208.49.446.693.713.201.267.377.553.527.86.15.305.257.624.322.956.436.17.882.254 1.338.254Z"/>
</svg>
